X:1
T:I'll Fly Away
M:2/2
L:1/2
K:G
 B G| D G| B/2 A/2 B/2 c/2| B- A| G2-| G G/2 G/2| D2-| D z| B G| D G|\
 B/2 A/2 B/2 c/2| B2| B2-| B A/2 A/2| G2-| G z| B2-| B G/2 G/2| B B|\
 G A| G2-| G G/2 G/2| D2-| D z| D E| G G/2 A/2| B/2 A/2 B/2 c/2| B2|\
 B2-| B A/2 A/2| G2-| G z|
